img/chain/advice/youtube.svg

<svg width="38" height="38" viewBox="0 0 38 38" fill="none" xmlns="http://www.w3.org/2000/svg">
<rect width="38" height="38" rx="2" fill="#CE1312"/>
<path fill-rule="evenodd" clip-rule="evenodd" d="M16.3155 22.0038L16.3147 14.4137L23.3396 18.2219L16.3155 22.0038ZM31.74 13.0985C31.74 13.0985 31.4857 11.2371 30.7065 10.4174C29.7177 9.34106 28.6094 9.33598 28.1016 9.27351C24.4632 9 19.0057 9 19.0057 9H18.9943C18.9943 9 13.5368 9 9.89838 9.27351C9.38975 9.33598 8.28232 9.34106 7.29269 10.4174C6.5135 11.2371 6.26 13.0985 6.26 13.0985C6.26 13.0985 6 15.2849 6 17.4705V19.5202C6 21.7066 6.26 23.8922 6.26 23.8922C6.26 23.8922 6.5135 25.7536 7.29269 26.5733C8.28232 27.6497 9.5815 27.6159 10.16 27.7282C12.24 27.9358 19 28 19 28C19 28 24.4632 27.9916 28.1016 27.718C28.6094 27.6547 29.7177 27.6497 30.7065 26.5733C31.4857 25.7536 31.74 23.8922 31.74 23.8922C31.74 23.8922 32 21.7066 32 19.5202V17.4705C32 15.2849 31.74 13.0985 31.74 13.0985Z" fill="white"/>
</svg>

<svg width="38" height="38" fill="none" xmlns="http://www.w3.org/2000/svg"><rect width="38" height="38" rx="2" fill="#CE1312"/><path fill-rule="evenodd" clip-rule="evenodd" d="m16.316 22.004-.001-7.59 7.025 3.808-7.024 3.782zm15.424-8.906s-.254-1.86-1.034-2.68c-.988-1.077-2.097-1.082-2.604-1.144C24.463 9 19.006 9 19.006 9h-.012s-5.457 0-9.096.274c-.508.062-1.616.067-2.605 1.143-.78.82-1.033 2.681-1.033 2.681S6 15.285 6 17.471v2.05c0 2.186.26 4.371.26 4.371s.253 1.862 1.033 2.681c.99 1.077 2.288 1.043 2.867 1.155C12.24 27.936 19 28 19 28s5.463-.008 9.102-.282c.507-.063 1.616-.068 2.604-1.145.78-.82 1.034-2.68 1.034-2.68s.26-2.186.26-4.373v-2.05c0-2.185-.26-4.371-.26-4.371z" fill="#fff"/></svg>
